X: 59
T: Fanny Power
R: waltz
M: 3/4
L: 1/8
K: Gmaj
D2  |"G"G4 D2 |G3A B2    |"C"c4 B2 |"Am"A4 G2   |"D"F2 E2 D2|D2 E2 D2|F4 G2|A4 c2|
     "G"B3A G2|B2 c2 d2  |"C"e4 A2 |"Am"A4 G2       |"D"F2 E2 D2|D2 G2 F2|"G"G4G2| G4 :|
|:d2|"G"d2 Bc d2|d2 Bc d2    |"G"G3B G2|G2 B2 d2 |"Am"e2 cd e2|e2 cd e2|"D"A3 B A2|A2 B2 c2|
     "G"B3c d2  |"C"e2 f2 g2|"D"f3g a2|d4 c2    |"G"B3A G2   |"D"D2 G2 F2|"G"G4G2| G4 :|

